X: 130
T: Sweet Willy O
B: 204 Favourite Country Dances
N: Published by Straight & Skillern, London ca.1775
F: http://imslp.org/wiki/204_Favourite_Country_Dances_(Various) p.65 #130
Z: 2014 John Chambers <jc:trillian.mit.edu>
N: This tune has only 14 bars.
M: 6/8
L: 1/8
K: Bb
% - - - - - - - - - - - - - - - - - - - - - - - - -
F |\
B>cB DFB | def f2e/d/ | efe GBd |\
gab bag | fgf fdB | eGG G2A | Bcd def |
gcc c2F | BcB dfd | BcB dfd | BcB dfd |\
B_aa agf | gec fdB | BcB B2 |]
% - - - - - - - - - - - - - - - - - - - - - - - - -
%%begintext align
%% Cast of 2 Cu. lead up 1 Cu. Hands 4 round
%% lead up and cast off
%%endtext

%%sep 1 1 500
%%sep 1 1 500
